X:1     %Music
T:The Anti-Gallican Privateer
B:Bruce and Stokoe,  Northumbrian Minstrelsy, Newcastle-Upon Tyne, 188(reissued Llanerch)
M:6/8     %Meter
L:1/8     %
K:G
B |c2 B G A B |c2 A F2 A |c2 B G2 E | F2 A d2  :|
w:The An-ti-gal-li-can's safe arr-iv'd, On board of her with speed we'll hie;
|:B |d2 d d2 d |e2 f g2 f/ e/ | d2 B c B A |G2 G G3 |
w: She'll soon be fit to sail a-way, To the An-ti-gal-li-can haste a-way,
 A2 B c3 |B2 d g2 f/ e/ | d2 B c B A |G2 G G2  |]
w: haste a-way, haste a-way, To the An-ti-gal-li-can haste a-way. 